X:1
T:Title
%%score { 1 | ( 2 3 ) }
L:1/8
Q:1/4=111
M:6/4
K:F
V:1 treble nm="Grand Piano"
V:2 bass 
V:3 bass 
V:1
 [CA]2 G2 B2 [CA]2 C3 G | [A,F]6 [G,E]6 | [DB]2 c2 B2 [B,D]2 E3 G | [A,C]12 | %4
w: H.~C.~Clausen * * * * *||||
 [B,D]2 E2 F2 [B,G]2 F3 D | [A,C]6 [CA]6 | [=B,A]2 G2 G2 [B,D]2 E3 F | [B,G]12 | %8
w: ||||
 [CA]2 G2 B2 [CA]2 C3 G | [A,F]6 [G,E]6 | [DB]2 B2 B2 [DB]2 c3 B | [CA]12 | %12
w: ||||
 [B,D]2 E2 F2 [B,G]2 F3 D | [A,C]6 [CA]6 | c2 c2 B2 A2 C3 G | [F,A,F]12 |] %16
w: ||||
V:2
 z2 B,2 D2 z2 A,3 B, | [C,,C,]6 [C,,C,]6 | z2 E2 D2 z2 B,3 B, | [F,,F,]12 | z2 B,2 B,2 z2 B,3 B, | %5
 [F,,F,]6 [F,,F,]6 | z2 =B,2 B,2 z2 B,3 B, | [C,,C,]12 | z2 B,2 D2 z2 A,3 B, | [C,,C,]6 [C,,C,]6 | %10
 z2 D2 D2 z2 E3 D | [F,,F,]12 | z2 B,2 B,2 z2 B,3 B, | [F,,F,]6 [F,,F,]6 | A,2 A,2 G,2 F,2 A,3 B, | %15
 F,,12 |] %16
V:3
 [F,,F,]6 [F,,F,]6 | x12 | [C,,C,]6 [C,,C,]6 | x12 | [B,,,B,,]6 [B,,,B,,]6 | x12 | %6
 [G,,G,]6 [G,,G,]6 | x12 | [F,,F,]6 [F,,F,]6 | x12 | [C,,C,]6 [C,,C,]6 | x12 | %12
 [B,,,B,,]6 [B,,,B,,]6 | x12 | C,6 C,6 | x12 |] %16

